Map-navigation-icons/i-history.svg

<?xml version="1.0" encoding="UTF-8"?>
<svg width="24px" height="24px" viewBox="0 0 24 24" version="1.1" xmlns="http://www.w3.org/2000/svg" xmlns:xlink="http://www.w3.org/1999/xlink">
    <title>i-history</title>
    <g id="Fleet-View-V_2" stroke="none" stroke-width="1" fill="none" fill-rule="evenodd">
        <g id="Icons-list" transform="translate(-404.000000, -539.000000)">
            <g id="i-history" transform="translate(404.000000, 539.000000)">
                <rect id="ViewBox" x="0" y="0" width="24" height="24"></rect>
                <path d="M21.9999827,11.9811063 C22.010167,17.4907934 17.5169086,21.9961239 12.0072407,22 C9.62760777,22.0016884 7.4418051,21.1721708 5.72410646,19.7858377 C5.277454,19.4253532 5.24406697,18.7559569 5.64995336,18.3500691 L6.10426709,17.8957537 C6.45140359,17.548616 7.00559618,17.5106321 7.39019228,17.8157536 C8.65571429,18.8199892 10.2572841,19.4193855 11.9999827,19.4193855 C16.1009837,19.4193855 19.4193247,16.1003877 19.4193247,12.0000176 C19.4193247,7.8990023 16.1003385,4.5806497 11.9999827,4.5806497 C10.0316796,4.5806497 8.24398113,5.34553007 6.91660439,6.59404033 L8.96313311,8.64057619 C9.36958402,9.04702852 9.08172161,9.74194909 8.50696454,9.74194909 L2.64516017,9.74194909 C2.28883015,9.74194909 2,9.45311794 2,9.09678667 L2,3.23496185 C2,2.66020277 2.69491815,2.37233936 3.10136906,2.77875137 L5.09217207,4.76956132 C6.88745122,3.05387282 9.32063249,2 11.9999827,2 C17.5165054,2 21.9897638,6.46694334 21.9999827,11.9811063 Z M14.0818459,15.322246 L14.4447553,14.8288922 C14.7454127,14.420186 14.6757716,13.8311692 14.2892174,13.5133213 L12.7855243,12.2767337 L12.7855243,8.20064724 C12.7855243,7.68287969 12.3885517,7.26315789 11.8988474,7.26315789 L11.3077295,7.26315789 C10.8180253,7.26315789 10.4210526,7.68287969 10.4210526,8.20064724 L10.4210526,13.4994542 L12.8375796,15.4866973 C13.2241338,15.8045452 13.7811885,15.7309523 14.0818459,15.322246 L14.0818459,15.322246 Z" id="Shape" fill="#000000" fill-rule="nonzero"></path>
            </g>
        </g>
    </g>
</svg>

<svg width="24" height="24" xmlns="http://www.w3.org/2000/svg">
  <g fill="none" fill-rule="evenodd">
    <path d="M0 0h24v24H0z"/>
    <path d="M22 11.981c.01 5.51-4.483 10.015-9.993 10.019a9.958 9.958 0 0 1-6.283-2.214.967.967 0 0 1-.074-1.436l.454-.454a.97.97 0 0 1 1.286-.08A7.39 7.39 0 0 0 12 19.419 7.415 7.415 0 0 0 19.42 12 7.415 7.415 0 0 0 12 4.58a7.394 7.394 0 0 0-5.083 2.014l2.046 2.047a.645.645 0 0 1-.456 1.1H2.645A.645.645 0 0 1 2 9.098V3.235a.645.645 0 0 1 1.101-.456l1.991 1.99A9.966 9.966 0 0 1 12 2c5.517 0 9.99 4.467 10 9.981Zm-7.918 3.341.363-.493a.974.974 0 0 0-.156-1.316l-1.503-1.236V8.2c0-.518-.397-.938-.887-.938h-.591c-.49 0-.887.42-.887.938v5.298l2.417 1.988a.855.855 0 0 0 1.244-.165Z" fill="#000" fill-rule="nonzero"/>
  </g>
</svg>
